src/categories-icons-sprite/categories/svg-cat-prod-assians-food.svg

<svg width="31" height="34" viewBox="0 0 31 34" fill="none" xmlns="http://www.w3.org/2000/svg">
<path class="p-895D3C" d="M30.7459 4.09033H0V5.23122L30.7459 6.13552V4.09033Z" fill="#58ADE5"/>
<path class="p-714C2F" d="M30.7464 4.09033H13.3623V5.42558L30.7464 6.13552V4.09033Z" fill="#4D98CB"/>
<path class="p-F4D7AF" d="M4.79232 18.277L3.4834 16.7021C5.81491 14.7388 6.42847 11.2892 4.93548 8.6919C3.5243 6.23768 3.5243 3.39481 4.69006 1.02246H7.0624C5.67175 2.94493 5.46723 5.52187 6.71479 7.66931C8.69855 11.1461 7.88055 15.6795 4.79232 18.277Z" fill="#A1D1FD"/>
<path class="p-F4D7AF" d="M11.5827 14.0844C10.9897 16.2523 9.53756 18.0724 7.49237 19.2382L6.49023 17.4384C8.04457 16.559 9.16943 15.1683 9.6193 13.5526C10.0489 11.9573 9.84434 10.1031 9.02626 8.6919C7.90141 6.72846 7.63554 4.33566 8.31052 2.18822C8.43323 1.77918 8.57625 1.39059 8.78084 1.02246H11.1124C10.7441 1.55421 10.4579 2.14731 10.2533 2.78132C9.76246 4.41747 9.9466 6.19671 10.8056 7.66931C11.8691 9.57133 12.1758 11.9983 11.5827 14.0844Z" fill="#A1D1FD"/>
<path class="p-F4D7AF" d="M15.5506 14.5138C15.1211 15.8227 14.3643 16.9885 13.3623 17.9089C12.5851 18.6656 11.6647 19.2586 10.6013 19.7086L9.80371 17.827C11.4399 17.1317 12.6874 15.9455 13.3623 14.4525C13.4646 14.2684 13.5465 14.0639 13.6078 13.8593C14.0986 12.3869 14.0168 10.6144 13.3623 9.2032C13.3009 9.03951 13.2192 8.85545 13.1169 8.6919C11.9512 6.64672 11.7057 4.21295 12.4625 1.98363C12.5647 1.65647 12.7079 1.32917 12.851 1.02246H15.2234C14.8553 1.51331 14.5894 2.0655 14.3849 2.63809C13.8327 4.29469 14.0168 6.13542 14.8962 7.66931C16.0619 9.71449 16.2869 12.2846 15.5506 14.5138Z" fill="#A1D1FD"/>
<path class="p-00C8C8" d="M20.5202 30.7117V34H6.13574V30.7117L13.3621 28.6665L20.5202 30.7117Z" fill="#65B3E7"/>
<path class="p-1CADB5" d="M20.5204 30.7117V34H13.3623V28.6665L20.5204 30.7117Z" fill="#4D98CB"/>
<path class="p-00C8C8" d="M0 15.3572V19.5658C0 20.1384 0.449872 20.5884 1.02259 20.5884H25.633C26.2057 20.5884 26.6556 20.1384 26.6556 19.5658V15.3572H0Z" fill="#65B3E7"/>
<path class="p-1CADB5" d="M26.656 15.3572V19.5658C26.656 20.1384 26.2061 20.5884 25.6334 20.5884H13.3623V15.3572H26.656Z" fill="#4D98CB"/>
<path class="p-64E1DC" d="M26.6556 19.5657V23.656C26.6556 27.2556 23.9764 30.2006 20.52 30.7119H6.13555C2.67919 30.2006 0 27.2556 0 23.656V19.5657H26.6556Z" fill="#B9DFFC"/>
<path class="p-00C8C8" d="M26.656 19.5657V23.656C26.656 27.2556 23.9768 30.2006 20.5204 30.7119H13.3623V19.5657H26.656Z" fill="#A1D1FD"/>
<path class="p-895D3C" d="M30.7459 0L0 0.904292V2.04518H30.7459V0Z" fill="#58ADE5"/>
<path class="p-714C2F" d="M30.7464 0L13.3623 0.593442V2.04518H30.7464V0Z" fill="#4D98CB"/>
</svg>

<svg width="31" height="34" fill="none" xmlns="http://www.w3.org/2000/svg"><path class="p-895D3C" d="M30.746 4.09H0v1.141l30.746.905V4.09z" fill="#58ADE5"/><path class="p-714C2F" d="M30.746 4.09H13.362v1.336l17.384.71V4.09z" fill="#4D98CB"/><path class="p-F4D7AF" d="M4.792 18.277l-1.309-1.575c2.332-1.963 2.945-5.413 1.452-8.01-1.41-2.454-1.41-5.297-.245-7.67h2.372c-1.39 1.923-1.595 4.5-.347 6.647 1.984 3.477 1.166 8.01-1.923 10.608z" fill="#A1D1FD"/><path class="p-F4D7AF" d="M11.583 14.084c-.593 2.168-2.045 3.988-4.09 5.154l-1.003-1.8c1.555-.879 2.68-2.27 3.13-3.885.429-1.596.224-3.45-.594-4.861a8.227 8.227 0 01-.715-6.504 5.79 5.79 0 01.47-1.166h2.331a6.689 6.689 0 00-.859 1.76c-.49 1.635-.306 3.415.553 4.887 1.063 1.902 1.37 4.33.777 6.415z" fill="#A1D1FD"/><path class="p-F4D7AF" d="M15.55 14.514a7.992 7.992 0 01-2.188 3.395c-.777.757-1.697 1.35-2.76 1.8l-.798-1.882c1.636-.695 2.883-1.882 3.558-3.375.103-.184.184-.388.246-.593.49-1.472.409-3.245-.246-4.656a2.908 2.908 0 00-.245-.511 8.203 8.203 0 01-.655-6.708c.103-.328.246-.655.389-.962h2.372c-.368.491-.634 1.044-.838 1.616a6.203 6.203 0 00.511 5.031c1.166 2.045 1.39 4.616.655 6.845z" fill="#A1D1FD"/><path class="p-00C8C8" d="M20.52 30.712V34H6.136v-3.288l7.226-2.046 7.158 2.046z" fill="#65B3E7"/><path class="p-1CADB5" d="M20.52 30.712V34h-7.158v-5.334l7.158 2.046z" fill="#4D98CB"/><path class="p-00C8C8" d="M0 15.357v4.209c0 .572.45 1.022 1.023 1.022h24.61c.573 0 1.023-.45 1.023-1.022v-4.209H0z" fill="#65B3E7"/><path class="p-1CADB5" d="M26.656 15.357v4.209c0 .572-.45 1.022-1.023 1.022h-12.27v-5.23h13.293z" fill="#4D98CB"/><path class="p-64E1DC" d="M26.656 19.566v4.09c0 3.6-2.68 6.545-6.136 7.056H6.136C2.679 30.2 0 27.256 0 23.656v-4.09h26.656z" fill="#B9DFFC"/><path class="p-00C8C8" d="M26.656 19.566v4.09c0 3.6-2.68 6.545-6.136 7.056h-7.158V19.566h13.294z" fill="#A1D1FD"/><path class="p-895D3C" d="M30.746 0L0 .904v1.141h30.746V0z" fill="#58ADE5"/><path class="p-714C2F" d="M30.746 0L13.362.593v1.452h17.384V0z" fill="#4D98CB"/></svg>
